src/pos-icons/clipboard-arrow-up-outline.svg

<svg height="24" viewBox="0 0 24 24" width="24" xmlns="http://www.w3.org/2000/svg"><path d="m12 8 5 5h-3v4h-4v-4h-3zm7-5a2 2 0 0 1 2 2v14a2 2 0 0 1 -2 2h-14a2 2 0 0 1 -2-2v-14a2 2 0 0 1 2-2h4.18c.42-1.16 1.52-2 2.82-2s2.4.84 2.82 2zm-7 0a1 1 0 0 0 -1 1 1 1 0 0 0 1 1 1 1 0 0 0 1-1 1 1 0 0 0 -1-1m-5 4v-2h-2v14h14v-14h-2v2z"/></svg>

<?xml version="1.0" encoding="UTF-8"?><!DOCTYPE svg PUBLIC "-//W3C//DTD SVG 1.1//EN" "http://www.w3.org/Graphics/SVG/1.1/DTD/svg11.dtd"><svg xmlns="http://www.w3.org/2000/svg" xmlns:xlink="http://www.w3.org/1999/xlink" version="1.1" id="mdi-clipboard-arrow-up-outline" width="24" height="24" viewBox="0 0 24 24"><path d="M12,8L17,13H14V17H10V13H7L12,8M19,3A2,2 0 0,1 21,5V19A2,2 0 0,1 19,21H5A2,2 0 0,1 3,19V5A2,2 0 0,1 5,3H9.18C9.6,1.84 10.7,1 12,1C13.3,1 14.4,1.84 14.82,3H19M12,3A1,1 0 0,0 11,4A1,1 0 0,0 12,5A1,1 0 0,0 13,4A1,1 0 0,0 12,3M7,7V5H5V19H19V5H17V7H7Z" /></svg>
